X:242
T:Adieu My Native Land Adieu.(top line). JC.049
M:C
L:1/8
Q:120
S:John Clare,Poet,Helpston. (1793-1864)
R:Air
O:England
A:Northamptonshire
N:
Z:P Headford
K:D
A|d3f (fe)(gf)|(fe)(dc)d3A|B2d2A2d2|e/d/(c/d/ e)f{f}e3A|!
d3f (fe)(gf)|(fe)(dc)d3A|(B/c/d/c/ e/)d/(cB) Ad(fa)|geBcd3|!
|f|eA^GBA3f|eA^GB{B}A3^e|(fc)(dA) BFGG|!g3fe3d|
c3de3A|g3f{f}e3d|"DC"c3dA3|]
W:Song text exists. See Deacon.
